X:14
T:Trip to the Cottage,A. RH.014
R:Jig
S:Rev.R.Harrison’s MS,c1815,Cumbria
N:The last note of the A music was a quaver. PJH.
O:England
A:Temple Sowerby,Cumbria
Z:vmp.Simon Wilson. Review PJH, 2008.
M:6/8
L:1/8
Q:3/8=120
K:G
B/c/|dBB BGG|cAA AFD|DGG FAA|GBB A>Bc|!
dBB BGG|cAA AFD|DGG FAA|BGG G2:|!
|:((3d/e/f/)|gfe d2B|edc Bcd|ecG dBG|FAG FED|!
gfe d2B|edc Bcd|efg fdf|ed^c ” DC”d2:|

